X: 1769
T: Everybody's Fancy   #1
R: hornpipe, reel
%S: s:4 b:10(5+5)
B: O'Neill's 1850 #1769
Z: Bob Safranek, rjs@gsp.org
M: C|
L: 1/8
K: G
D2 |: G2 D2 TE2 (DC) | B,DGB Td2 (^cd) | edcB cBAG | FGAB [1,3 cDEF :|[2,4 G2  :|
|: D2 |: (Bd) z e dBAG  | (Bd) z d b2 g2  | (Bd) z e dBAG | FGAB [1,3 Tc2 (BA) :|[2,4 G2 :|
